icons/1_Primary/DocuSign.svg

<svg width="1024" height="1024" fill="none" xmlns="http://www.w3.org/2000/svg"><g clip-path="url(#a)"><path d="M512 1024c282.77 0 512-229.23 512-512S794.77 0 512 0 0 229.23 0 512s229.23 512 512 512Z" fill="#56595B"/><path d="M171 438.1h50.7c32.3 0 52.8 25.9 52.8 61.5 0 19.4-6.5 36.7-19.4 47.4-8.6 7.5-20.5 11.9-35.6 11.9H171V438.1Zm46.9 99.8c23.2 0 31.8-14 31.8-37.7 0-23.7-10.2-40.4-31.3-40.4h-23.2v78.7h22.6v-.6h.1Zm60.4-22.1c0-25.9 18.3-45.8 45.3-45.8 27 0 45.3 19.9 45.3 45.8s-18.3 45.8-45.3 45.8c-27 0-45.3-20.5-45.3-45.8Zm66.8 0c0-16.7-8.1-28.6-22.1-28.6-14 0-22.1 11.3-22.1 28.6s7.5 28 22.1 28c14.6 0 22.1-11.3 22.1-28Zm28.1 0c0-25.9 16.7-45.8 43.1-45.8 22.6 0 36.1 12.9 39.4 31.8H433c-1.6-7.5-7.5-13.5-15.6-13.5-14 0-21 10.8-21 27.5 0 16.2 6.5 27.5 20.5 27.5 9.2 0 15.6-4.9 17.3-14.6h22.6c-1.6 18.3-15.6 32.9-38.8 32.9-27.6-.5-44.8-20.5-44.8-45.8Zm143.9 43.1v-10.2h-.5c-5.9 8.1-12.4 12.4-24.8 12.4-19.4 0-30.2-12.4-30.2-31.3v-57.7h22.6V526c0 10.2 4.3 15.6 14.6 15.6 10.8 0 17.3-8.1 17.3-19.4v-50.1h23.2v86.3h-22.1l-.1.5Zm133.7-120.2H674v21.6h-23.2v-21.6Zm0 33.4H674v86.3h-23.2v-86.3Zm32.4 89h22.6c1.6 5.4 7 9.7 17.3 9.7 12.9 0 19.4-6.5 19.4-17.8v-9.7h-.5c-4.9 5.9-11.9 10.2-22.6 10.2-19.4 0-38.3-15.1-38.3-41.5 0-25.9 15.6-42.1 37.2-42.1 10.8 0 18.9 4.3 23.7 11.3h.5V472h22.1v79.8c0 12.4-3.8 20.5-10.2 26.4-7 7-18.3 9.7-31.3 9.7-22.7.1-37.2-9.6-39.9-26.8Zm60.9-49.6c0-12.4-7-23.2-20.5-23.2-11.9 0-19.4 9.2-19.4 23.7s7.5 23.2 19.4 23.2c14.6 0 20.5-10.8 20.5-23.7Zm53.4-27.5c6.5-9.2 14.6-14 25.9-14 17.8 0 29.7 13.5 29.7 32.3v56.6h-23.2v-52.8c0-9.2-5.4-15.6-15.1-15.6-10.2 0-17.8 8.1-17.8 19.9v49.1h-22.1v-86.3h22.6V484Zm-199 2.1c-17.8-3.8-25.9-7-25.9-16.7 0-8.6 8.6-14 21.6-14 11.9 0 21 5.4 23.2 16.7h23.7c-2.7-23.2-19.9-36.1-46.9-36.1s-46.4 12.4-46.4 36.1c0 25.3 19.9 30.7 41.5 35.6 18.3 4.3 29.7 6.5 29.7 18.3 0 11.3-10.8 15.6-23.2 15.6-17.3 0-25.3-5.9-27-20.5h-23.7c1.1 25.3 19.4 39.9 52.3 39.9 27 0 46.9-13.5 46.9-38.3-.5-25.3-21-31.2-45.8-36.6Z" fill="#fff"/></g><defs><clipPath id="a"><path fill="#fff" d="M0 0h1024v1024H0z"/></clipPath></defs></svg>

<svg width="1024" height="1024" viewBox="0 0 1024 1024" fill="none" xmlns="http://www.w3.org/2000/svg">
<g clip-path="url(#clip0_2_2046)">
<path d="M512 1024C794.77 1024 1024 794.77 1024 512C1024 229.23 794.77 0 512 0C229.23 0 0 229.23 0 512C0 794.77 229.23 1024 512 1024Z" fill="#56595B"/>
<path d="M171 438.1H221.7C254 438.1 274.5 464 274.5 499.6C274.5 519 268 536.3 255.1 547C246.5 554.5 234.6 558.9 219.5 558.9H171V438.1ZM217.9 537.9C241.1 537.9 249.7 523.9 249.7 500.2C249.7 476.5 239.5 459.8 218.4 459.8H195.2V538.5H217.8V537.9H217.9ZM278.3 515.8C278.3 489.9 296.6 470 323.6 470C350.6 470 368.9 489.9 368.9 515.8C368.9 541.7 350.6 561.6 323.6 561.6C296.6 561.6 278.3 541.1 278.3 515.8ZM345.1 515.8C345.1 499.1 337 487.2 323 487.2C309 487.2 300.9 498.5 300.9 515.8C300.9 533.1 308.4 543.8 323 543.8C337.6 543.8 345.1 532.5 345.1 515.8ZM373.2 515.8C373.2 489.9 389.9 470 416.3 470C438.9 470 452.4 482.9 455.7 501.8H433C431.4 494.3 425.5 488.3 417.4 488.3C403.4 488.3 396.4 499.1 396.4 515.8C396.4 532 402.9 543.3 416.9 543.3C426.1 543.3 432.5 538.4 434.2 528.7H456.8C455.2 547 441.2 561.6 418 561.6C390.4 561.1 373.2 541.1 373.2 515.8ZM517.1 558.9V548.7H516.6C510.7 556.8 504.2 561.1 491.8 561.1C472.4 561.1 461.6 548.7 461.6 529.8V472.1H484.2V526C484.2 536.2 488.5 541.6 498.8 541.6C509.6 541.6 516.1 533.5 516.1 522.2V472.1H539.3V558.4H517.2L517.1 558.9ZM650.8 438.7H674V460.3H650.8V438.7ZM650.8 472.1H674V558.4H650.8V472.1ZM683.2 561.1H705.8C707.4 566.5 712.8 570.8 723.1 570.8C736 570.8 742.5 564.3 742.5 553V543.3H742C737.1 549.2 730.1 553.5 719.4 553.5C700 553.5 681.1 538.4 681.1 512C681.1 486.1 696.7 469.9 718.3 469.9C729.1 469.9 737.2 474.2 742 481.2H742.5V472H764.6V551.8C764.6 564.2 760.8 572.3 754.4 578.2C747.4 585.2 736.1 587.9 723.1 587.9C700.4 588 685.9 578.3 683.2 561.1ZM744.1 511.5C744.1 499.1 737.1 488.3 723.6 488.3C711.7 488.3 704.2 497.5 704.2 512C704.2 526.5 711.7 535.2 723.6 535.2C738.2 535.2 744.1 524.4 744.1 511.5ZM797.5 484C804 474.8 812.1 470 823.4 470C841.2 470 853.1 483.5 853.1 502.3V558.9H829.9V506.1C829.9 496.9 824.5 490.5 814.8 490.5C804.6 490.5 797 498.6 797 510.4V559.5H774.9V473.2H797.5V484ZM598.5 486.1C580.7 482.3 572.6 479.1 572.6 469.4C572.6 460.8 581.2 455.4 594.2 455.4C606.1 455.4 615.2 460.8 617.4 472.1H641.1C638.4 448.9 621.2 436 594.2 436C567.2 436 547.8 448.4 547.8 472.1C547.8 497.4 567.7 502.8 589.3 507.7C607.6 512 619 514.2 619 526C619 537.3 608.2 541.6 595.8 541.6C578.5 541.6 570.5 535.7 568.8 521.1H545.1C546.2 546.4 564.5 561 597.4 561C624.4 561 644.3 547.5 644.3 522.7C643.8 497.4 623.3 491.5 598.5 486.1Z" fill="white"/>
</g>
<defs>
<clipPath id="clip0_2_2046">
<rect width="1024" height="1024" fill="white"/>
</clipPath>
</defs>
</svg>
